; generated by PrusaSlicer 2.5.2 on 2023-04-07 at 13:46:35 UTC


;
;
; 

; external perimeters extrusion width = 0.65mm
; perimeters extrusion width = 0.65mm
; infill extrusion width = 0.65mm
; solid infill extrusion width = 0.65mm
; top infill extrusion width = 0.60mm
; first layer extrusion width = 0.65mm

; external perimeters extrusion width = 0.65mm
; perimeters extrusion width = 0.65mm
; infill extrusion width = 0.65mm
; solid infill extrusion width = 0.65mm
; top infill extrusion width = 0.60mm
; first layer extrusion width = 0.65mm

M73 P0 R15
M73 Q0 S15
M201 X1000 Y1000 Z200 E5000 ; sets maximum accelerations, mm/sec^2
M203 X200 Y200 Z12 E120 ; sets maximum feedrates, mm / sec
M204 P1250 R1250 T1250 ; sets acceleration (P, T) and retract acceleration (R), mm/sec^2
M205 X8.00 Y8.00 Z0.40 E4.50 ; sets the jerk limits, mm/sec
M205 S0 T0 ; sets the minimum extruding and travel feed rate, mm/sec
M107
;TYPE:Custom
M862.3 P "MK3S" ; printer model check
M862.1 P0.6 ; nozzle diameter check
M115 U3.12.2 ; tell printer latest fw version
G90 ; use absolute coordinates
M83 ; extruder relative mode
M104 S215 ; set extruder temp
M140 S60 ; set bed temp
M190 S60 ; wait for bed temp
M109 S215 ; wait for extruder temp
G28 W ; home all without mesh bed level
G80 ; mesh bed leveling

G1 Z0.2 F720
G1 Y-3 F1000 ; go outside print area
G92 E0
G1 X60 E9 F1000 ; intro line
G1 X100 E12.5 F1000 ; intro line

G92 E0
M221 S95
G21 ; set units to millimeters
G90 ; use absolute coordinates
M83 ; use relative distances for extrusion
M900 K0.04 ; Filament gcode LA 1.5
M900 K18 ; Filament gcode LA 1.0
M107
;LAYER_CHANGE
;Z:0.2
;HEIGHT:0.2
;BEFORE_LAYER_CHANGE
G92 E0.0
;0.2


G1 E-.8 F2100
G1 Z.4 F720
;AFTER_LAYER_CHANGE
;0.2
G1 X94.911 Y83.273 F10800
G1 Z.2 F720
M73 P0 R14
G1 E.8 F1500
M204 S800
;TYPE:Skirt/Brim
;WIDTH:0.65
G1 F1200
G1 X96.412 Y82.034 E.09823
G1 X97.723 Y81.231 E.07763
G1 X99.7 Y80.385 E.10855
G1 X103.054 Y79.296 E.17802
G1 X104.747 Y78.881 E.08795
G1 X135.135 Y75.763 E1.54201
G1 X137.29 Y75.649 E.10893
M73 P1 R14
M73 Q1 S15
G1 X139.074 Y75.822 E.09046
G1 X140.958 Y76.307 E.09823
G1 X142.743 Y77.082 E.09823
G1 X144.385 Y78.126 E.09823
G1 X145.827 Y79.394 E.09693
G1 X153.444 Y88.138 E.58537
G1 X154.017 Y89.075 E.05543
G1 X154.361 Y90.219 E.06029
G1 X158.749 Y119.273 E1.48327
G1 X158.792 Y120.149 E.04425
G1 X158.706 Y120.834 E.03488
G1 X158.46 Y121.628 E.04198
G1 X158.072 Y122.364 E.04198
G1 X149.943 Y131.709 E.62524
G1 X148.443 Y132.949 E.09823
G1 X146.767 Y133.938 E.09823
G1 X144.957 Y134.653 E.09823
G1 X143.462 Y135.012 E.07763
G1 X109.849 Y137.534 E1.70154
G1 X107.911 Y137.35 E.09823
G1 X106.219 Y136.935 E.08795
G1 X102.673 Y135.775 E.18835
G1 X101.252 Y135.186 E.07763
G1 X99.577 Y134.197 E.09823
G1 X98.076 Y132.958 E.09823
G1 X96.548 Y131.168 E.1188
G1 X95.744 Y129.857 E.07763
G1 X94.97 Y128.072 E.09823
G1 X94.429 Y125.868 E.11454
G1 X91.264 Y97.535 E1.43914
G1 X91.127 Y95.712 E.09225
G1 X91.127 Y92.185 E.17802
G1 X91.32 Y90.044 E.10855
G1 X91.679 Y88.548 E.07763
G1 X92.335 Y86.881 E.09047
G1 X93.383 Y85.063 E.10592
G1 X94.853 Y83.342 E.11426
M204 S1000
; printing object fusionPartyLogo_revB.stl id:0 copy 2
;WIPE_START
G1 F8640
G1 X96.412 Y82.034 E-.4698
G1 X97.483 Y81.377 E-.2902
;WIPE_END
G1 E-.04 F2100
M73 Q2 S15
G1 Z.6 F720
G1 X149.769 Y121.181 F10800
M73 P2 R14
G1 Z.2 F720
G1 E.8 F1500
M204 S800
;TYPE:External perimeter
;WIDTH:0.797534
G1 F1200
G1 X149.678 Y121.383 E.01385
;WIDTH:0.797334
G1 X148.941 Y122.591 E.0888
;WIDTH:0.797534
G1 X147.915 Y123.787 E.09889
M204 S1000
G1 X147.193 Y123.429 F10800
M204 S800
;WIDTH:0.803256
G1 F1200
G1 X147.253 Y123.148 E.01813
;WIDTH:0.797536
G1 X147.318 Y122.327 E.05171
M204 S1000
;WIPE_START
G1 F8640
G1 X147.253 Y123.148 E-.19029
G1 X147.193 Y123.429 E-.0662
;WIPE_END
G1 E-.54351 F2100
G1 Z.6 F720
G1 X147.915 Y123.787 F10800
G1 Z.2 F720
M73 Q2 S14
G1 E.8 F1500
M204 S800
;WIDTH:0.790822
G1 F1200
G1 X147.775 Y123.936 E.01269
;WIDTH:0.746056
G1 X147.635 Y124.085 E.01193
;WIDTH:0.70129
G1 X147.495 Y124.233 E.01117
;WIDTH:0.705576
G1 X147.356 Y124.32 E.00907
;WIDTH:0.754628
G1 X147.216 Y124.407 E.00974
;WIDTH:0.80368
G1 X147.076 Y124.494 E.01041
;WIDTH:0.852732
G1 X146.937 Y124.581 E.01108
G1 X146.946 Y124.518 E.00428
;WIDTH:0.830656
G1 X146.959 Y124.37 E.00973
;WIDTH:0.787308
G1 X146.972 Y124.222 E.0092
;WIDTH:0.74396
G1 X146.985 Y124.074 E.00866
;WIDTH:0.700612
G1 X146.999 Y123.926 E.00813
;WIDTH:0.705928
G1 X147.064 Y123.76 E.00982
;WIDTH:0.754592
G1 X147.128 Y123.595 E.01054
;WIDTH:0.803256
G1 X147.193 Y123.429 E.01126
G1 X147.273 Y123.528 E.00805
;WIDTH:0.754592
G1 X147.353 Y123.627 E.00754
;WIDTH:0.705928
G1 X147.433 Y123.726 E.00702
;WIDTH:0.672886
G1 X147.529 Y123.783 E.00583
;WIDTH:0.712198
G1 X147.657 Y123.785 E.00716
;WIDTH:0.75151
G1 X147.786 Y123.786 E.00758
;WIDTH:0.790822
G1 X147.825 Y123.786 E.0024
M204 S1000
;WIPE_START
G1 F8640
G1 X147.775 Y123.936 E-.0364
G1 X147.635 Y124.085 E-.04712
G1 X147.495 Y124.233 E-.04712
G1 X147.356 Y124.32 E-.03799
G1 X147.216 Y124.407 E-.03799
G1 X147.076 Y124.494 E-.03799
G1 X146.937 Y124.581 E-.03799
G1 X146.946 Y124.518 E-.01469
G1 X146.959 Y124.37 E-.03432
G1 X146.972 Y124.222 E-.03432
G1 X146.985 Y124.074 E-.03432
G1 X146.999 Y123.926 E-.03432
G1 X147.064 Y123.76 E-.04112
G1 X147.128 Y123.595 E-.04112
G1 X147.193 Y123.429 E-.04112
G1 X147.273 Y123.528 E-.0294
G1 X147.353 Y123.627 E-.0294
G1 X147.433 Y123.726 E-.0294
G1 X147.529 Y123.783 E-.02571
G1 X147.657 Y123.785 E-.0297
G1 X147.786 Y123.786 E-.0297
G1 X147.825 Y123.786 E-.00892
;WIPE_END
G1 E-.05984 F2100
G1 Z.6 F720
G1 X145.751 Y125.366 F10800
G1 Z.2 F720
G1 E.8 F1500
M204 S800
;WIDTH:0.797534
G1 F1200
G1 X144.799 Y125.793 E.06547
M204 S1000
G1 X144.299 Y125.1 F10800
M204 S800
;WIDTH:0.803256
G1 F1200
G1 X144.632 Y124.805 E.02816
;WIDTH:0.797536
G1 X145.586 Y123.68 E.09253
;WIDTH:0.797146
G1 X146.322 Y122.471 E.08878
;WIDTH:0.797536
G1 X146.476 Y122.125 E.02378
M204 S1000
G1 X147.181 Y122.146 F10800
M204 S800
;WIDTH:0.768668
G1 F1200
G1 X147.045 Y121.964 E.01368
;WIDTH:0.739802
G1 X146.906 Y121.93 E.00832
;WIDTH:0.768669
G1 X146.691 Y122.027 E.01424
;WIDTH:0.797536
G1 X146.476 Y122.125 E.0148
G1 X146.586 Y121.821 E.02024
;WIDTH:0.768669
G1 X146.696 Y121.518 E.01947
;WIDTH:0.739802
G1 X146.885 Y121.05 E.02927
;WIDTH:0.780871
G1 X147.033 Y120.514 E.03411
;WIDTH:0.82194
G1 X147.18 Y119.978 E.03601
G1 X147.257 Y120.242 E.01781
;WIDTH:0.784968
G1 X147.354 Y121.179 E.0581
;WIDTH:0.739802
G1 X147.394 Y121.729 E.03194
;WIDTH:0.768668
G1 X147.356 Y122.028 E.01819
;WIDTH:0.797534
G1 X147.318 Y122.327 E.01892
G1 X147.235 Y122.218 E.00857
M204 S1000
G1 X147.158 Y121.92 F10800
;WIPE_START
G1 F8640
G1 X147.045 Y121.964 E-.07311
G1 X146.906 Y121.93 E-.03314
G1 X146.691 Y122.027 E-.05448
G1 X146.476 Y122.125 E-.05448
G1 X146.586 Y121.821 E-.07448
G1 X146.696 Y121.518 E-.07448
G1 X146.885 Y121.05 E-.11663
G1 X147.033 Y120.514 E-.12835
G1 X147.18 Y119.978 E-.12835
G1 X147.208 Y120.072 E-.0225
;WIPE_END
G1 E-.04 F2100
G1 Z.6 F720
G1 X146.504 Y117.823 F10800
G1 Z.2 F720
G1 E.8 F1500
M204 S800
;WIDTH:0.803256
G1 F1200
G1 X146.326 Y117.415 E.02816
;WIDTH:0.797534
G1 X145.552 Y116.16 E.09253
G1 X144.632 Y115.083 E.08883
G1 X144.347 Y114.833 E.02382
M204 S1000
G1 X144.737 Y114.073 F10800
M204 S800
;WIDTH:0.803252
G1 F1200
G1 X145.56 Y114.41 E.05626
G1 X145.809 Y114.554 E.01813
M204 S1000
G1 X146.395 Y114.04 F10800
M204 S800
;WIDTH:0.79753
G1 F1200
G1 X146.342 Y113.913 E.00861
G1 X145.552 Y112.633 E.09439
G1 X144.632 Y111.557 E.08883
G1 X144.467 Y111.41 E.01386
M204 S1000
G1 X144.727 Y110.649 F10800
M204 S800
G1 F1200
G1 X144.864 Y110.66 E.00861
G1 X146.269 Y110.997 E.09069
G1 X147.633 Y111.557 E.09253
;WIDTH:0.803254
G1 X148.017 Y111.784 E.02815
M204 S1000
G1 X148.219 Y111.72 F10800
M204 S800
;WIDTH:0.771527
G1 F1200
G1 X148.422 Y111.656 E.01285
;WIDTH:0.7398
G1 X148.5 Y111.565 E.00697
;WIDTH:0.771524
G1 X148.531 Y111.355 E.01285
;WIDTH:0.803248
G1 X148.562 Y111.145 E.01341
G1 X148.772 Y111.374 E.01962
;WIDTH:0.771524
G1 X148.982 Y111.603 E.0188
;WIDTH:0.7398
G1 X149.274 Y112.08 E.03245
;WIDTH:0.772627
G1 X149.482 Y112.45 E.02576
;WIDTH:0.805453
G1 X149.69 Y112.821 E.02692
;WIDTH:0.841028
G1 X149.756 Y113.026 E.01435
G1 X149.589 Y112.907 E.01366
;WIDTH:0.805453
G1 X149.256 Y112.644 E.02692
;WIDTH:0.772627
G1 X148.922 Y112.381 E.02576
;WIDTH:0.7398
G1 X148.494 Y112.113 E.02927
;WIDTH:0.771527
G1 X148.255 Y111.948 E.01756
;WIDTH:0.803254
G1 X148.017 Y111.784 E.01832
G1 X148.133 Y111.747 E.00772
M204 S1000
G1 X148.424 Y111.776 F10800
;WIPE_START
G1 F8640
G1 X148.422 Y111.656 E-.06975
G1 X148.5 Y111.565 E-.02779
G1 X148.531 Y111.355 E-.04897
G1 X148.562 Y111.145 E-.04897
G1 X148.772 Y111.374 E-.07165
G1 X148.982 Y111.603 E-.07165
G1 X149.274 Y112.08 E-.12929
G1 X149.482 Y112.45 E-.09804
G1 X149.69 Y112.821 E-.09804
G1 X149.756 Y113.026 E-.04992
G1 X149.594 Y112.911 E-.04593
;WIPE_END
G1 E-.04 F2100
G1 Z.6 F720
G1 X151.323 Y114.949 F10800
G1 Z.2 F720
G1 E.8 F1500
M204 S800
;WIDTH:0.797532
G1 F1200
G1 X151.78 Y115.704 E.05542
G1 X152.322 Y117.012 E.08883
G1 X152.671 Y118.445 E.09253
;WIDTH:0.803256
G1 X152.709 Y118.832 E.02459
M204 S1000
G1 X153.399 Y118.964 F10800
M204 S800
;WIDTH:0.791744
G1 F1200
G1 X153.813 Y118.679 E.0313
;WIDTH:0.790614
G1 X154.313 Y118.558 E.03193
G1 X154.669 Y118.58 E.02217
G1 X155.078 Y118.732 E.02713
G1 X155.42 Y119.005 E.02722
G1 X155.665 Y119.382 E.02798
G1 X155.776 Y119.788 E.02614
G1 X155.753 Y120.237 E.02797
;WIDTH:0.790348
G1 X155.606 Y120.628 E.02594
G1 X155.335 Y120.969 E.02707
;WIDTH:0.791768
G1 X155.001 Y121.2 E.0253
;WIDTH:0.807478
G1 X154.611 Y121.318 E.02592
G1 X154.176 Y121.318 E.02767
G1 X153.76 Y121.19 E.02763
;WIDTH:0.803614
G1 X153.363 Y120.89 E.03149
M204 S1000
G1 X152.701 Y121.122 F10800
M204 S800
;WIDTH:0.797536
G1 F1200
G1 X152.671 Y121.443 E.02028
G1 X152.322 Y122.876 E.09253
G1 X151.78 Y124.184 E.08883
G1 X151.323 Y124.94 E.05542
;WIDTH:0.803246
G1 X151.286 Y124.994 E.00416
M204 S1000
G1 X150.51 Y124.673 F10800
M204 S800
;WIDTH:0.803254
G1 F1200
G1 X150.607 Y124.238 E.02816
;WIDTH:0.797536
G1 X150.718 Y122.768 E.09253
G1 X150.591 Y121.256 E.09519
M204 S1000
G1 X150.486 Y121.181 F10800
M204 S800
;WIDTH:0.751507
G1 F1200
G1 X150.382 Y121.107 E.00758
;WIDTH:0.712195
G1 X150.277 Y121.032 E.00716
;WIDTH:0.672883
G1 X150.168 Y121.023 E.00571
;WIDTH:0.703526
G1 X150.035 Y121.076 E.00786
;WIDTH:0.75053
G1 X149.902 Y121.129 E.00842
;WIDTH:0.797534
G1 X149.769 Y121.181 E.00898
G1 X149.824 Y120.989 E.01258
;WIDTH:0.75053
G1 X149.878 Y120.796 E.01179
;WIDTH:0.703526
G1 X149.933 Y120.603 E.01101
;WIDTH:0.700732
G1 X150.016 Y120.447 E.00968
;WIDTH:0.744943
G1 X150.1 Y120.291 E.01033
;WIDTH:0.789154
G1 X150.183 Y120.135 E.01099
;WIDTH:0.833364
G1 X150.267 Y119.979 E.01164
G1 X150.31 Y120.095 E.00816
;WIDTH:0.79576
G1 X150.384 Y120.315 E.01455
;WIDTH:0.754801
G1 X150.458 Y120.536 E.01376
;WIDTH:0.713842
G1 X150.532 Y120.756 E.01297
;WIDTH:0.712195
G1 X150.552 Y120.923 E.00933
;WIDTH:0.751507
G1 X150.571 Y121.089 E.00988
;WIDTH:0.790818
G1 X150.591 Y121.256 E.01043
G1 X150.56 Y121.233 E.0024
M204 S1000
G1 X150.438 Y121.062 F10800
;WIPE_START
G1 F8640
G1 X150.382 Y121.107 E-.05048
G1 X150.277 Y121.032 E-.0297
G1 X150.168 Y121.023 E-.02519
G1 X150.035 Y121.076 E-.03303
G1 X149.902 Y121.129 E-.03303
G1 X149.769 Y121.181 E-.03303
G1 X149.824 Y120.989 E-.04628
G1 X149.878 Y120.796 E-.04628
G1 X149.933 Y120.603 E-.04628
G1 X150.016 Y120.447 E-.04088
G1 X150.1 Y120.291 E-.04088
G1 X150.183 Y120.135 E-.04088
G1 X150.267 Y119.979 E-.04088
G1 X150.31 Y120.095 E-.02868
G1 X150.384 Y120.315 E-.05367
G1 X150.458 Y120.536 E-.05367
G1 X150.532 Y120.756 E-.05367
G1 X150.552 Y120.923 E-.03873
G1 X150.564 Y121.029 E-.02476
;WIPE_END
G1 E-.04 F2100
G1 Z.6 F720
G1 X150.573 Y118.695 F10800
G1 Z.2 F720
G1 E.8 F1500
M204 S800
;WIDTH:0.797536
G1 F1200
G1 X150.605 Y118.561 E.00861
G1 X150.718 Y117.061 E.09439
G1 X150.607 Y115.65 E.08883
G1 X150.523 Y115.28 E.02382
M204 S1000
G1 X150.64 Y115.075 F10800
M204 S800
;WIDTH:0.797534
G1 F1200
G1 X150.523 Y115.28 E.0148
G1 X150.434 Y114.97 E.02024
;WIDTH:0.768668
G1 X150.344 Y114.66 E.01947
;WIDTH:0.739801
G1 X150.222 Y114.17 E.02927
;WIDTH:0.780872
G1 X150.027 Y113.649 E.03411
;WIDTH:0.821942
G1 X149.831 Y113.129 E.03601
G1 X150.049 Y113.297 E.01781
;WIDTH:0.78497
G1 X150.677 Y113.999 E.0581
;WIDTH:0.739801
G1 X151.033 Y114.42 E.03194
;WIDTH:0.768667
G1 X151.178 Y114.684 E.01819
;WIDTH:0.797532
G1 X151.323 Y114.949 E.01892
G1 X151.106 Y114.882 E.01422
;WIDTH:0.768667
G1 X150.889 Y114.816 E.01368
;WIDTH:0.739801
G1 X150.756 Y114.87 E.00832
;WIDTH:0.768668
G1 X150.684 Y114.997 E.00881
M204 S1000
;WIPE_START
G1 F8640
G1 X150.523 Y115.28 E-.07526
G1 X150.434 Y114.97 E-.07448
G1 X150.344 Y114.66 E-.07448
G1 X150.222 Y114.17 E-.11663
G1 X150.027 Y113.649 E-.12835
G1 X149.831 Y113.129 E-.12835
G1 X150.049 Y113.297 E-.0635
G1 X150.335 Y113.617 E-.09895
;WIPE_END
G1 E-.04 F2100
G1 Z.6 F720
G1 X147.863 Y116.061 F10800
G1 Z.2 F720
G1 E.8 F1500
M204 S800
;WIDTH:0.797534
G1 F1200
G1 X147.967 Y116.15 E.00861
G1 X148.906 Y117.25 E.09069
G1 X149.68 Y118.504 E.09253
;WIDTH:0.803254
G1 X149.797 Y118.766 E.01813
M204 S1000
G1 X149.957 Y118.799 F10800
M204 S800
;WIDTH:0.764596
G1 F1200
G1 X150.118 Y118.831 E.00981
;WIDTH:0.725937
G1 X150.278 Y118.863 E.00929
;WIDTH:0.72368
G1 X150.376 Y118.807 E.00641
;WIDTH:0.760082
G1 X150.475 Y118.751 E.00676
;WIDTH:0.796484
G1 X150.573 Y118.695 E.0071
G1 X150.554 Y118.877 E.01144
;WIDTH:0.74983
G1 X150.534 Y119.058 E.01074
;WIDTH:0.703176
G1 X150.514 Y119.24 E.01003
;WIDTH:0.705574
G1 X150.452 Y119.392 E.00907
;WIDTH:0.754626
G1 X150.391 Y119.545 E.00974
;WIDTH:0.803678
G1 X150.329 Y119.697 E.01041
;WIDTH:0.85273
G1 X150.267 Y119.85 E.01108
G1 X150.237 Y119.793 E.00428
;WIDTH:0.830655
G1 X150.161 Y119.666 E.00973
;WIDTH:0.787306
G1 X150.085 Y119.538 E.0092
;WIDTH:0.743957
G1 X150.008 Y119.411 E.00866
;WIDTH:0.700608
G1 X149.932 Y119.283 E.00813
;WIDTH:0.705924
G1 X149.887 Y119.111 E.00982
;WIDTH:0.754589
G1 X149.842 Y118.939 E.01054
;WIDTH:0.803254
G1 X149.797 Y118.766 E.01126
G1 X149.869 Y118.781 E.00465
M204 S1000
G1 X150.061 Y118.925 F10800
;WIPE_START
G1 F8640
G1 X150.118 Y118.831 E-.05854
G1 X150.278 Y118.863 E-.03776
G1 X150.376 Y118.807 E-.02616
G1 X150.475 Y118.751 E-.02616
G1 X150.573 Y118.695 E-.02616
G1 X150.554 Y118.877 E-.04217
G1 X150.534 Y119.058 E-.04217
G1 X150.514 Y119.24 E-.04217
G1 X150.452 Y119.392 E-.03799
G1 X150.391 Y119.545 E-.03799
G1 X150.329 Y119.697 E-.03799
G1 X150.267 Y119.85 E-.03799
G1 X150.237 Y119.793 E-.01469
G1 X150.161 Y119.666 E-.03432
G1 X150.085 Y119.538 E-.03432
G1 X150.008 Y119.411 E-.03432
G1 X149.932 Y119.283 E-.03432
G1 X149.887 Y119.111 E-.04112
G1 X149.842 Y118.939 E-.04112
G1 X149.797 Y118.766 E-.04112
G1 X149.869 Y118.781 E-.01698
;WIPE_END
G1 E-.05446 F2100
G1 Z.6 F720
G1 X153.399 Y118.964 F10800
G1 Z.2 F720
G1 E.8 F1500
M204 S800
;WIDTH:0.791744
G1 F1200
G1 X153.374 Y119.006 E.00306
;WIDTH:0.776454
G1 X153.332 Y119.105 E.00659
;WIDTH:0.736521
G1 X153.289 Y119.205 E.00624
;WIDTH:0.696588
G1 X153.247 Y119.304 E.00588
;WIDTH:0.656655
G1 X153.204 Y119.404 E.00552
;WIDTH:0.616721
G1 X153.169 Y119.693 E.0139
;WIDTH:0.57161
G1 X153.133 Y119.982 E.01281
G1 X153.169 Y120.233 E.01116
;WIDTH:0.616721
G1 X153.204 Y120.484 E.01211
;WIDTH:0.663445
G1 X153.244 Y120.586 E.00562
;WIDTH:0.710168
G1 X153.284 Y120.687 E.00604
;WIDTH:0.756891
G1 X153.323 Y120.789 E.00647
;WIDTH:0.803614
G1 X153.363 Y120.89 E.00689
G1 X153.274 Y120.87 E.00577
;WIDTH:0.763876
G1 X153.185 Y120.851 E.00547
;WIDTH:0.724137
G1 X153.096 Y120.831 E.00517
;WIDTH:0.722111
G1 X152.964 Y120.928 E.00923
;WIDTH:0.759824
G1 X152.832 Y121.025 E.00975
;WIDTH:0.797536
G1 X152.701 Y121.122 E.01026
G1 X152.689 Y120.984 E.00866
;WIDTH:0.752333
G1 X152.677 Y120.847 E.00814
;WIDTH:0.707129
G1 X152.665 Y120.709 E.00762
;WIDTH:0.661925
G1 X152.653 Y120.572 E.0071
;WIDTH:0.616721
G1 X152.654 Y120.267 E.01452
;WIDTH:0.569747
G1 X152.654 Y119.963 E.01333
;WIDTH:0.554717
G1 X152.651 Y119.703 E.01108
;WIDTH:0.586662
